P3
# high-detail color fixture
16 16
255
15 15 15 230 80 70 220 220 220 220 220 220 230 80 70 40 50 200 220 220 220 220 220 220 230 80 70 230 80 70 40 50 200 220 220 220 230 80 70 230 80 70 220 220 220 15 15 15
230 80 70 15 15 15 40 50 200 230 80 70 230 80 70 220 220 220 220 220 220 40 50 200 230 80 70 220 220 220 220 220 220 230 80 70 40 50 200 220 220 220 15 15 15 230 80 70
220 220 220 220 220 220 15 15 15 230 80 70 40 50 200 220 220 220 230 80 70 230 80 70 220 220 220 40 50 200 230 80 70 230 80 70 220 220 220 15 15 15 40 50 200 230 80 70
220 220 220 40 50 200 230 80 70 15 15 15 220 220 220 230 80 70 40 50 200 220 220 220 220 220 220 230 80 70 230 80 70 40 50 200 15 15 15 230 80 70 230 80 70 220 220 220
230 80 70 230 80 70 220 220 220 40 50 200 15 15 15 230 80 70 220 220 220 220 220 220 40 50 200 230 80 70 220 220 220 15 15 15 230 80 70 40 50 200 220 220 220 220 220 220
40 50 200 220 220 220 220 220 220 230 80 70 230 80 70 15 15 15 30 180 90 30 180 90 30 180 90 30 180 90 15 15 15 230 80 70 230 80 70 220 220 220 220 220 220 40 50 200
220 220 220 220 220 220 40 50 200 230 80 70 220 220 220 30 180 90 15 15 15 30 180 90 30 180 90 15 15 15 30 180 90 230 80 70 40 50 200 220 220 220 230 80 70 230 80 70
220 220 220 230 80 70 230 80 70 220 220 220 40 50 200 30 180 90 30 180 90 15 15 15 15 15 15 30 180 90 30 180 90 220 220 220 220 220 220 230 80 70 40 50 200 220 220 220
230 80 70 40 50 200 220 220 220 220 220 220 230 80 70 30 180 90 30 180 90 15 15 15 15 15 15 30 180 90 30 180 90 40 50 200 230 80 70 230 80 70 220 220 220 220 220 220
230 80 70 220 220 220 220 220 220 40 50 200 230 80 70 30 180 90 15 15 15 30 180 90 30 180 90 15 15 15 30 180 90 230 80 70 230 80 70 40 50 200 220 220 220 230 80 70
40 50 200 220 220 220 230 80 70 230 80 70 220 220 220 15 15 15 30 180 90 30 180 90 30 180 90 30 180 90 15 15 15 230 80 70 220 220 220 220 220 220 230 80 70 40 50 200
220 220 220 230 80 70 40 50 200 220 220 220 15 15 15 230 80 70 230 80 70 40 50 200 220 220 220 230 80 70 230 80 70 15 15 15 40 50 200 230 80 70 230 80 70 220 220 220
230 80 70 230 80 70 220 220 220 15 15 15 40 50 200 230 80 70 220 220 220 220 220 220 230 80 70 40 50 200 220 220 220 220 220 220 15 15 15 230 80 70 40 50 200 220 220 220
230 80 70 40 50 200 15 15 15 230 80 70 230 80 70 220 220 220 40 50 200 230 80 70 230 80 70 220 220 220 220 220 220 40 50 200 230 80 70 15 15 15 220 220 220 230 80 70
220 220 220 15 15 15 230 80 70 40 50 200 220 220 220 220 220 220 230 80 70 230 80 70 40 50 200 220 220 220 230 80 70 230 80 70 220 220 220 40 50 200 15 15 15 230 80 70
15 15 15 230 80 70 230 80 70 220 220 220 220 220 220 40 50 200 230 80 70 220 220 220 220 220 220 230 80 70 40 50 200 220 220 220 220 220 220 230 80 70 230 80 70 15 15 15
