P2
# portrait-like grayscale fixture
24 24
255
255 255 255 255 255 255 255 255 255 255 72 72 72 72 72 255 255 255 255 255 255 255 255 255
255 255 255 255 255 255 255 255 72 72 72 72 72 72 72 72 72 255 255 255 255 255 255 255
255 255 255 255 255 255 255 72 72 72 72 72 72 72 72 72 72 72 255 255 255 255 255 255
255 255 255 255 255 255 255 72 72 72 72 72 72 72 72 72 72 72 255 255 255 255 255 255
255 255 255 255 255 255 72 72 72 72 72 72 72 72 72 72 72 72 72 255 255 255 255 255
255 255 255 255 255 255 72 72 72 72 72 72 72 72 72 72 72 72 72 255 255 255 255 255
255 255 255 255 255 255 72 72 72 72 72 72 72 72 72 72 72 72 72 255 255 255 255 255
255 255 255 255 255 72 72 72 72 235 72 72 72 72 72 235 72 72 72 72 255 255 255 255
255 255 255 255 255 72 72 72 235 235 235 72 72 72 235 235 235 72 72 72 255 255 255 255
255 255 255 255 255 72 72 72 72 235 72 72 72 72 72 235 72 72 72 72 255 255 255 255
255 255 255 255 255 255 72 72 72 72 72 72 72 72 72 72 72 72 72 255 255 255 255 255
255 255 255 255 255 255 72 72 72 40 40 40 40 40 40 40 72 72 72 255 255 255 255 255
255 255 255 255 255 255 72 72 72 40 40 40 40 40 40 40 72 72 72 255 255 255 255 255
255 255 255 255 255 255 255 72 72 40 40 48 48 48 40 40 72 72 255 255 255 255 255 255
255 255 255 255 255 255 255 72 72 72 72 48 48 48 72 72 72 72 255 255 255 255 255 255
255 255 255 255 255 255 255 255 72 72 72 48 48 48 72 72 72 255 255 255 255 255 255 255
255 255 255 255 255 255 255 255 255 255 72 48 48 48 72 255 255 255 255 255 255 255 255 255
255 255 255 255 255 255 255 255 255 255 82 48 48 48 82 255 255 255 255 255 255 255 255 255
255 255 255 255 255 255 82 82 82 82 82 82 82 82 82 82 82 82 82 255 255 255 255 255
255 255 255 255 82 82 82 82 82 82 82 82 82 82 82 82 82 82 82 82 82 255 255 255
255 255 255 82 82 82 82 82 82 82 82 82 82 82 82 82 82 82 82 82 82 82 255 255
255 255 255 82 82 82 82 82 82 82 82 82 82 82 82 82 82 82 82 82 82 82 255 255
255 255 255 82 82 82 82 82 82 82 82 82 82 82 82 82 82 82 82 82 82 82 255 255
255 255 255 255 82 82 82 82 82 82 82 82 82 82 82 82 82 82 82 82 82 255 255 255
